X: 4369
M: 6/8
L: 1/8
K: A
(A/B/) |\
czc/c/ cz(A/B/) | czc/c/ cz(A/B/) |\
czc/c/ cBc | f3 e3 |\
dzE/E/ Ezd | czE/E/ Ezc |\
[1 BcB AGF | (B3 E2 :|\
[2 BcB F2G | A3 H|]
agf e^de | fzB {c}B^AB |\
c2B G2E | [a3A3] [a3A3] |\
[Aa]gf e^de | fBc edB |\
[1 A3 Ace :|[2 AEF GA"_D.C."B |]



